!!!COM: Beethoven, Ludwig van
!!!CDT: 1770///-1827///
!!!ODT: 1826///
!!!OTL: String Quartet No. 16 in F Major, Op. 135
!!!OPS: Op. 135
!!!OMV: Mvmt. 2
!!!OMD: Vivace
!!!PDT: 1827///
!!!PPP: Berlin and Paris
!!!ODE: Johann Wolfmeier gewidmet
!!!MPD: 1828/03/28/
!!!ONB: grace notes written out with durations.
**kern	**kern	**kern	**kern
*staff4	*staff3	*staff2	*staff1
*Icello	*Iviola	*Ivioln	*Ivioln
*>[A,B,B1,B,B2,C,D,D1,D,D2,E]	*>[A,B,B1,B,B2,C,D,D1,D,D2,E]	*>[A,B,B1,B,B2,C,D,D1,D,D2,E]	*>[A,B,B1,B,B2,C,D,D1,D,D2,E]
*>norep[A,B,B2,C,D,D2,E]	*>norep[A,B,B2,C,D,D2,E]	*>norep[A,B,B2,C,D,D2,E]	*>norep[A,B,B2,C,D,D2,E]
*>A	*>A	*>A	*>A
*clefF4	*clefC3	*clefG2	*clefG2
*k[b-]	*k[b-]	*k[b-]	*k[b-]
*F:	*F:	*F:	*F:
*M3/4	*M3/4	*M3/4	*M3/4
*MM320	*MM320	*MM320	*MM320
4r	4r	[4c/	4r
=1	=1	=1	=1
4FF'/	2.F/	2c/]	4r
4r	.	.	[2a/
4AA'/	.	[4c/	.
=2	=2	=2	=2
4BB-'/	2.E/	2c/]	4a/]
4r	.	.	[2g/
4C'/	.	[4c/	.
=3	=3	=3	=3
4D\	2.F/	2c/]	4g/]
4r	.	.	[2f/
4C/	.	[4c/	.
=4	=4	=4	=4
4BB-/	2.E/	2c/]	4f/]
4r	.	.	[2g/
4GG/	.	[4c/	.
=5	=5	=5	=5
4FF/	2.F/	2c/]	4g/]
4r	.	.	[2a/
4AA/	.	[4c/	.
=6	=6	=6	=6
4BB-/	2.E/	2c/]	4a/]
4r	.	.	[2g/
4C/	.	4c/	.
=7	=7	=7	=7
4D'\	4F'/	4A'/	4g'/]
4DD'/	4F'/	4A'/	4f'/
4CC'/	4E'/	4e'/	4g'/
=8	=8	=8	=8
4FF'/	4F'/	4A'/	4f'/
4d'\	4a'\	4ff'\	4r
4c'\	4ee'\	4gg'\	[4ccc\
=9	=9	=9	=9
4f'\	4a'\	4ff'\	2ccc\]
4r	4F'/	[2aa\	.
4A\	[4f\	.	[4ccc\
=10	=10	=10	=10
4B-\	4f\]	4aa\]	2ccc\]
4r	4e\	[2gg\	.
4c\	(4b-\	.	[4ccc\
=11	=11	=11	=11
4d\	4a\)	4gg\]	2ccc\]
4r	4A/	[2ff\	.
4c\	4a\	.	[4ccc\
=12	=12	=12	=12
4B-\	4d\	4ff\]	2ccc\]
4r	4b-\	[2gg\	.
4G\	4e\	.	[4ccc\
=13	=13	=13	=13
4F\	4a\	4gg\]	2ccc\]
4r	4c\	[2aa\	.
4A\	[4f\	.	[4ccc\
=14	=14	=14	=14
4B-\	4f\]	4aa\]	2ccc\]
4r	4E/	[2gg\	.
4c\	4e\	.	[4ccc\
=15	=15	=15	=15
4d\	4A/	4gg\]	4ccc'\]
4D\	4a\	4ff'\	4ddd'\
4C/	4c\	4gg'\	4eee'\
=16	=16	=16	=16
4F\	4F/	4ff'\	4fff'\
2EE-^/	2E-^/	2e-^/	2e-^/
=17!|:	=17!|:	=17!|:	=17!|:
*>B	*>B	*>B	*>B
4r	4r	2.r	2.r
2EE-/	2E-/	.	.
=18	=18	=18	=18
2EE-/	2E-/	2.r	2.r
4EE-/	4E-/	.	.
=19	=19	=19	=19
4r	4r	4r	4r
2EE-/	2E-/	2e-/	2e-/
=20	=20	=20	=20
2EE-/	2E-/	2e-/	2e-/
4EE-/	4E-/	4e-/	4e-/
=21	=21	=21	=21
4r	4r	4r	4r
2EE-/	2E-/	2e-/	2e-/
=22	=22	=22	=22
4r	4r	4r	4r
2EE-/	2E-/	2e-/	2e-/
=23	=23	=23	=23
4r	4r	4r	4r
2EEn/	2En/	2en/	2en/
=24	=24	=24	=24
4r	4r	4r	4r
[2CC/	2E/	2e/	2e/
=25	=25	=25	=25
2CC/]	4F/	4r	4r
.	([4C/	4r	[2a/
[4CC/	4C/_ 4A/	([4f/	.
=26	=26	=26	=26
2CC/]	4C/]) 4Bn/	2f/]	4a/]
.	([4C/	.	[2g/
[4CC/	4C/_ 4c/	4e/	.
=27	=27	=27	=27
2CC/]	4C/]) 4d/	2A/	4g/]
.	([4C/	.	[2f/
[4CC/	4C/_ 4c/	4A-/	.
=28	=28	=28	=28
2CC/]	4C/]) 4Bn/	2d/	4f/]
.	(4C/	.	[2g/
[4CC/	4D-/ 4B-/	[4e/)	.
=29	=29	=29	=29
2CC/]	4C/) 4A/	4e/]	4g/]
.	([4C/	(4A/	[2a/
[4CC/	4C/_ 4A/	[4f/)	.
=30	=30	=30	=30
2CC/]	4C/]) 4Bn/	4f/]	4a/]
.	([4C/	(4f/	[2g/
[4CC/	4C/_ 4c/	4e/)	.
=31	=31	=31	=31
2CC/]	4C/]) 4Bn/	([4A-/	4g/]
.	([4C/	4A-/]) 4d/	4f'/
[4CC/	4C/_ 4B-/	4G/ 4e/	4g'/
=32	=32	=32	=32
4CC/]	4C/]) 4A/	4A/	4f'/
4FF'/	4F'/	4r	4r
[4GG/	[4G/	4r	4r
=33	=33	=33	=33
4GG/]	4G/]	4f'/	4ff'\
[2AA/	[2A/	4r	4r
.	.	4a'/	4aa'\
=34	=34	=34	=34
4AA/]	4A/]	4b-'\	4bb-'\
[2GG/	[2G/	4r	4r
.	.	4cc\	4ccc\
=35	=35	=35	=35
4GG/]	4G/]	4dd\	4ddd\
[2FF/	[2F/	4r	4r
.	.	4cc\	4ccc\
=36	=36	=36	=36
4FF/]	4F/]	4b-\	4bb-\
[2GG/	[2G/	4r	4r
.	.	4g/	4gg\
=37	=37	=37	=37
4GG/]	4G/]	4f/	4ff\
[2AA/	[2A/	4r	4r
.	.	4a/	4aa\
=38	=38	=38	=38
4AA/]	4A/]	4b-\	4bb-\
[2GG/	[2G/	4r	4r
.	.	4cc\	4ccc\
=39	=39	=39	=39
4GG/]	4G/]	4dd\	4ddd\
4FF'/	4F'/	4r	4r
4GG'/	4G'/	4e/ 4cc/	4ccc\
=40	=40	=40	=40
4FF'/	4F'/	4a'\ 4cc'\	4ccc'\
4r	4A'/	4cc'\	4ccc'\
4r	4F'/	4a'/	4eee-'\
=41	=41	=41	=41
4r	4B-/	4f'/	4ddd'\
4FF'/	4r	4r	4r
4GG'/	4r	4r	4r
=42	=42	=42	=42
4FF'/	4r	4r	4r
4r	4B-'/	4f'/ 4dd'/	4eee'\
4r	4B-'/	4f'/ 4dd'/	4fff'\
=43	=43	=43	=43
4r	4f\	4a/	4ccc'\
4FF'/	4f\	4ff\	4r
4EE-'/	4g\	4gg\	4r
=44	=44	=44	=44
4DD'/	4f#\	4ff#\	4r
4EEn'/	4g\	4bb-\	4ddd\
4FF#/	4a\	4aa\	4ccc\
=45	=45	=45	=45
4GG/	4d\	4aa'\	4ccc'\
4GG/	4e\	4gg'\	4bb-'\
4AA/	4c\	4ffn'\	4aa'\
=46	=46	=46	=46
4BB-/	(4d\	(4ff\	(4aa\
4BB-/	4G/)	4dd\)	4bb-\)
4C/	4c\	4b-\ 4ee\	4gg'\
=47	=47	=47	=47
4FF/	4c\	4a'/	4aa'\
4r	4r	4f'/	4ff'\
4r	4r	4g'/	4gg'\
=48	=48	=48	=48
*clefC4	*	*	*
4r	4r	4f/	4ff\
4c'\	4A'/	4r	4r
4e-'\	4c'\	4r	4r
=49	=49	=49	=49
4d'\	4B-/	4r	4r
4r	4r	4f/	4ff\
4r	4r	4g/	4gg\
=50	=50	=50	=50
4r	4r	4f/	4ff\
4en\	4B-/	4r	4r
4f\	4B-/	4r	4r
=51	=51	=51	=51
4c\	4A/	4r	4r
4r	4r	4f/	4ff\
4r	4r	4g/	4gg\
=52	=52	=52	=52
4r	4r	4f/	4ff\
4e-\	4c\	4f#/	4ff#\
4d\	4B-/	4g/	4gg\
=53	=53	=53	=53
4d'\	4B-'/	4g/	4gg\
4c'\	4A'/	4g/	4gg\
4B-'\	4G'/	4cc\	4ccc\
=54	=54	=54	=54
(4A\	(4F/	4cc\	4ccc\
4B-\)	4G/)	4cc\	4ccc\
4G'/	4E'/	4cc\	4ccc\
=55	=55	=55	=55
4A'\	4F'/	4cc'\	4ccc'\
4G'/	4e'\	4c'/	4bb-'\
4A'\	4f'\	4cc'\	4aa'\
=56	=56	=56	=56
(4B-\	(4d\	(4cc\	(4aa\
*clefF4	*	*	*
4BB-/)	4D/)	4g\) 4dd\	4bb-\)
4C'/	4E'/	4e'/	4gg'\
=57	=57	=57	=57
4C'/	(4E/	(4b-\	(4gg\
4CC'/	4F/)	4a/)	4aa\)
4CC'/	4A'/	4f'/ 4a'/	4ff'\
=58	=58	=58	=58
4CC/	(4B-/	(4g/	(4ee\
4CC/	4A/)	4f/)	4ff\)
4CC/	4G'/	4e'/	4gg'\
=59	=59	=59	=59
(4CC/	(4G/	4b-'\	(4ee\
4DD/)	4F/)	4B-'/	4ff\)
4EE'/	4E'/	4b-'\	4gg'\
=60	=60	=60	=60
4FF'/	4A'/	4a'/	4cc\
4GG'/	4B-'/	4g'/	4cc\
4AA'/	4c'\	4f'/	4cc\
=61	=61	=61	=61
(4CC/	(4G/	4B-/	(4ee\
4DD/)	4F/)	4b-\	4ff\)
4EE'/	4E'/	4b-\	4gg'\
=62	=62	=62	=62
4FF'/	4A'/	4a'/	4cc\
4GG'/	4B-'/	4g'/	4cc\
4AA'/	4c'\	4f'/	4cc\
=63	=63	=63	=63
(4CC/	(4G/	4B-/	(4ee\
4DD/)	4F/)	4b-\	4ff\)
4EE'/	4E'/	4b-\	4gg'\
=64	=64	=64	=64
4FF'/	4A'/	4a'/	4cc\
4GG'/	4B-'/	4g'/	4cc\
4AA'/	4c'\	4f'/	4cc\
=65	=65	=65	=65
(4CC/	(4G/	4B-/	(4ee\
4DD/)	4F/)	4b-\	4ff\)
4EE'/	4E'/	4b-\	4gg'\
=66	=66	=66	=66
*>B1	*>B1	*>B1	*>B1
4FF/	4F/	4a/	4cc\
2EE-^/	2E-^/	2e-^/	2e-^/
=67:|!	=67:|!	=67:|!	=67:|!
*>B2	*>B2	*>B2	*>B2
4FF/	4F/	4a/	4cc\
4r	4r	4r	(8f/L
.	.	.	8e/
4r	4r	4r	8f/
.	.	.	8g/J)
=68	=68	=68	=68
*>C	*>C	*>C	*>C
4FF/	4F/	4c/	4a/
(8FF/L	(8F/L	4f/ 4a/	4cc\
8EE/	8E/	.	.
8FF/	8F/	4f/ 4a/	4cc\
8GG/J)	8G/J)	.	.
=69	=69	=69	=69
4AA'/	4A'/	4f/ 4a/	4cc\
4BB-'/	4B-'/	4f/ 4a/	4cc\
4C'/	4c'\	4f/ 4a/	4cc\
=70	=70	=70	=70
4D'\	4d'\	4f/ 4a/	4cc\
4E'\	4e'\	4f/ 4a/	4cc\
4F'\	4f'\	4f/ 4a/	4cc\
=71	=71	=71	=71
4G'\	4g'\	4f/ 4a/	4cc\
4A'\	4a'\	4f/ 4a/	4cc\
4B-'\	4b-'\	4f/ 4a/	4cc\
=72	=72	=72	=72
4c\	4cc\	4f/ 4a/	4cc'\
4c\	4a\	4f/	4dd'\
4c\	4a\	4f/	4ee'\
=73	=73	=73	=73
4c\	4a\	4f/	4ff'\
4c\	4a\	4f/	4gg'\
4c\	4a\	4f/	4aa'\
=74	=74	=74	=74
4c\	4g\	4e/	4bb-'\
4c\	4g\	4e/	4G'/
4c\	4g\	4e/	4aa'\
=75	=75	=75	=75
4c\	4g\	4e/	4bb-'\
4c\	4g\	4e/	4b-'\
4c\	4g\	4e/	4ccc'\
=76	=76	=76	=76
4F\	4cc\	4f/ 4a/	4aa'\
4c\	4cc\	4a\ 4ff\	(8f/L
.	.	.	8e/
4c\	4cc\	4a\ 4ff\	8f/
.	.	.	8g/J)
=77	=77	=77	=77
4c\	4cc\	4a\ 4ff\	4a'/
4c\	4cc\	4a\ 4ff\	4b-'\
4c\	4cc\	4a\ 4ff\	4cc'\
=78	=78	=78	=78
4c\	4cc\	4a\ 4ff\	4dd'\
4c\	4cc\	4a\ 4ff\	4ee'\
4c\	4cc\	4a\ 4ff\	4ff'\
=79	=79	=79	=79
4c\	4cc\	4a\ 4ff\	4gg'\
4c\	4cc\	4a\ 4ff\	4aa'\
4c\	4cc\	4a\ 4ff\	4bb-'\
=80	=80	=80	=80
4c\	4cc\	4g\ 4ee\	4ccc\
4c\	4cc\	4g\ 4ee\	4ddd\
4c\	4cc\	4g\ 4ee\	4eee\
=81	=81	=81	=81
4c\	4cc\	4g\ 4ee\	4fff\
4c\	4cc\	4g\ 4ee\	4ggg\
4c\	4cc\	4g\ 4ee\	4aaa\
=82	=82	=82	=82
4c\	4cc\	4g\ 4ee\	4bbb-\
4c\	4cc\	4g\ 4ee\	4cc\
4c\	4cc\	4g\ 4ee\	4aa\
=83	=83	=83	=83
4c\	4cc\	4g\ 4ee\	4bb-\
4c\	4cc\	4g\ 4ee\	4cc\
4c\	4cc\	4g\ 4ee\	4ccc\
=84	=84	=84	=84
4c\	4cc\	4a\ 4ff\	4aa\
(8DD/L	(8D/L	4r	4r
8CC/	8C/	.	.
8DD/	8D/	4r	4r
8EE/J)	8E/J)	.	.
=85	=85	=85	=85
4FF/	4F/	4r	4r
4r	4r	(8e/L	(8ee\L
.	.	8d/	8dd\
4r	4r	8e/	8ee\
.	.	8f/J)	8ff\J)
=86	=86	=86	=86
4r	4r	4g/	4gg\
(8FF/L	(8F/L	4r	4r
8EE/	8E/	.	.
8FF/	8F/	4r	4r
8GG/J)	8G/J)	.	.
=87	=87	=87	=87
4AA/	4A/	4r	4r
4r	4r	(8g/L	(8gg\L
.	.	8f/	8ff\
4r	4r	8g/	8gg\
.	.	8a/J)	8aa\J)
=88	=88	=88	=88
4r	4r	4b-\	4bb-\
(8AA/L	(8A/L	4r	4r
8GG/	8G/	.	.
8AA/	8A/	4r	4r
8BB-/J)	8B-/J)	.	.
=89	=89	=89	=89
4C/	4c\	4r	4r
4r	4r	(8g/L	(8gg\L
.	.	8f/	8ff\
4r	4r	8g/	8gg\
.	.	8a/J)	8aa\J)
=90	=90	=90	=90
*clefC4	*	*	*
4d\	4f\	4b-\	4bb-\
4r	4r	4r	4r
4d\	4cc\	4ff\	4aa\
=91	=91	=91	=91
2.e\	(2cc\	2.ee\	(2aa\
.	4bn\)	.	4gg#\)
=92	=92	=92	=92
*clefF4	*	*	*
[2.FF/	4a'\	4f'/	4aa\
.	(8a\L	(8aa\L	4r
.	8g#\	8gg#\	.
.	8a\	8aa\	4r
.	8bn\J)	8bbn\J)	.
=93	=93	=93	=93
2.FF/]	4cc\	4ccc\	4r
.	4r	(8gn/L	(8ggn\L
.	.	8f/	8ff\
.	4r	8g/	8gg\
.	.	8a/J)	8aa\J)
=94	=94	=94	=94
4DD/	4f\	4b-\	4bb-\
4r	4r	4r	4r
*clefC4	*	*	*
4d\	4f\	4ff\	4aa\
=95	=95	=95	=95
2.e\	(2cc\	2.ee\	(2aa\
.	4bn\)	.	4gg#\)
=96	=96	=96	=96
4c\	4cc\	4ee\	4aa\
4r	4r	4r	4r
4c\	4cc\	4ee\	4gg\
=97	=97	=97	=97
2.d\	(2bn\	2.dd\	(2gg\
.	4a\)	.	4ff#\)
=98	=98	=98	=98
*k[f#]	*k[f#]	*k[f#]	*k[f#]
4G/	4g\	4dd\	4b\ 4gg\
4d\	4g\ 4b\	4dd\ 4bb\	(8g/L
.	.	.	8f#/
4d\	4g\ 4b\	4dd\ 4bb\	8g/
.	.	.	8a/J)
=99	=99	=99	=99
4d\	4g\ 4b\	4dd\ 4bb\	4b'\
4d\	4g\ 4b\	4dd\ 4bb\	4cc'\
4d\	4g\ 4b\	4dd\ 4bb\	4dd'\
=100	=100	=100	=100
4d\	4g\ 4b\	4dd\ 4bb\	4ee'\
4d\	4g\ 4b\	4dd\ 4bb\	4ff#'\
4d\	4g\ 4b\	4dd\ 4bb\	4gg'\
=101	=101	=101	=101
4d\	4f#\ 4a\	4dd\ 4ccc\	4aa'\
4d\	4f#\ 4a\	4dd\ 4ccc\	4bb'\
4d\	4f#\ 4a\	4dd\ 4ccc\	4ccc'\
=102	=102	=102	=102
4d\	4f#\ 4a\	4dd\ 4ccc\	4ddd\
4d\	4f#\ 4a\	4dd\ 4ccc\	4eee\
4d\	4f#\ 4a\	4dd\ 4ccc\	4fff#\
=103	=103	=103	=103
4d\	4f#\ 4a\	4dd\ 4ccc\	4ggg\
4d\	4f#\ 4a\	4dd\ 4ccc\	4aaa\
4d\	4f#\ 4a\	4dd\ 4ccc\	4bbb\
=104	=104	=104	=104
4d\	4f#\ 4a\	4dd\ 4ccc\	4cccc\
4d\	4f#\ 4a\	4dd\ 4ccc\	4d/
4d\	4f#\ 4a\	4dd\ 4ccc\	4b\
=105	=105	=105	=105
4d\	4f#\ 4a\	4dd\ 4ccc\	4cc\
4d\	4f#\ 4a\	4dd\ 4ccc\	4d/
4d\	4f#\ 4a\	4dd\ 4ccc\	4dd\
=106	=106	=106	=106
4G/	4g\ 4b\	4dd\ 4bb\	4b\
4d\	4g\ 4b\	4dd\ 4bb\	(8g/L
.	.	.	8f#/
4d\	4g\ 4b\	4dd\ 4bb\	8g/
.	.	.	8a/J)
=107	=107	=107	=107
4d\	4g\ 4b\	4dd\ 4bb\	4b'\
4d\	4g\ 4b\	4dd\ 4bb\	4cc'\
4d\	4g\ 4b\	4dd\ 4bb\	4dd'\
=108	=108	=108	=108
4d\	4g\ 4b\	4dd\ 4bb\	4ee\
4d\	4g\ 4b\	4dd\ 4bb\	4ff#\
4d\	4g\ 4b\	4dd\ 4bb\	4gg\
=109	=109	=109	=109
4d\	4g\ 4b\	4dd\ 4bb\	4aa\
4g\	4g\ 4b\	4dd\ 4bb\	4bb\
4g\	4g\ 4b\	4dd\ 4bb\	4ccc\
=110	=110	=110	=110
4g\	4g\ 4b\	4dd\ 4bb\	4ddd\
4g\	4g\ 4b\	4dd\ 4bb\	4eee\
4g\	4g\ 4b\	4dd\ 4bb\	4fff#\
=111	=111	=111	=111
4fn\	4g\ 4b\	4dd\ 4bb\	4ggg\
4f\	4g\ 4b\	4dd\ 4bb\	4aaa\
4f\	4g\ 4b\	4dd\ 4bb\	4bbb\
=112	=112	=112	=112
4e\	4g#\ 4b\	4dd\ 4bb\	4bbb\
4e\	4g#\ 4b\	4ee\ 4bb\	4e/
4e\	4g#\ 4b\	4ee\ 4bb\	4dd#\
=113	=113	=113	=113
4e\	4g#\ 4b\	4ee\ 4bb\	4ee\
4e\	4g#\ 4b\	4ee\ 4bb\	4e/
4e\	4g#\ 4b\	4ee\ 4bb\	4ddn\
=114	=114	=114	=114
4e\	4a\ 4cc\	4ee\ 4ccc\	4cc\
4e\	4a\ 4cc\	4ee\ 4ccc\	4e/
4e\	4a\ 4cc\	4ee\ 4ccc\	4b\
=115	=115	=115	=115
4e\	4a\ 4cc\	4ee\ 4ccc\	4cc\
4e\	4a\	4ee\ 4ccc\	4e/
4e\	4g#\	4ee\ 4bb\	4b\
=116	=116	=116	=116
4e\	4g#\	4ee\ 4bb\	4b\
4e\	4g#\ 4b\	4ee\ 4bb\	4e/
4e\	4g#\ 4b\	4ee\ 4bb\	4cc\
=117	=117	=117	=117
4e\	4g#\ 4b\	4ee\ 4bb\	4cc\
4e\	4g#\ 4b\	4ee\ 4bb\	4e/
4e\	4g#\ 4b\	4ee\ 4bb\	4b\
=118	=118	=118	=118
4e\	4g#\ 4b\	4ee\ 4bb\	4b\
4e\	4g#\ 4b\	4ee\ 4bb\	4e/
4e\	4g#\ 4b\	4ee\ 4bb\	4cc\
=119	=119	=119	=119
4e\	4g#\ 4b\	4ee\ 4bb\	4cc\
4e\	4g#\ 4b\	4ee\ 4bb\	4e/
4e\	4g#\ 4b\	4ee\ 4bb\	4b\
=120	=120	=120	=120
4e\	4g#\ 4b\	4ee\ 4bb\	4b\
*clefF4	*	*	*
(8E\L	(8G#/L	4ee\ 4gg#\	4bb\
8D#\	8F#/	.	.
8E\	8G#/	4ee\ 4gg#\	4bb\
8F#\J)	8A/J)	.	.
=121	=121	=121	=121
4G#\	4B/	4ee\ 4gg#\	4bb\
4r	(8c#\L	4ee\ 4gg#\	4bb\
.	8B\	.	.
4r	8c#\	4ee\ 4gg#\	4bb\
.	8d\J)	.	.
=122	=122	=122	=122
*clefC4	*	*	*
4r	4e\	4ee\ 4gg#\	4bb\
4e\	(8g#\L	4ee\ 4gg#\	4bb\
.	8f#\	.	.
4e\	8g#\	4ee\ 4gg#\	4bb\
.	8a\J)	.	.
=123	=123	=123	=123
4e\	4b\	4ee\ 4gg#\	4bb\
4e\	(8a\L	(8f#/L	4eee\
.	8g#\	8e/	.
4e\	8a\	8f#/	4ddd\
.	8b\J)	8g#/J)	.
=124	=124	=124	=124
*k[f#c#g#]	*k[f#c#g#]	*k[f#c#g#]	*k[f#c#g#]
4A\	4e\ 4cc#\	4a/	4ccc#'\
4e\	4a\ 4cc#\	4ccc#\	(8A/L
.	.	.	8G#/
4e\	4a\ 4cc#\	4ccc#\	8A/
.	.	.	8B/J)
=125	=125	=125	=125
4e\	4a\ 4cc#\	4ee\ 4ccc#\	4c#'/
4e\	4a\ 4cc#\	4ee\ 4ccc#\	4d'/
4e\	4a\ 4cc#\	4ee\ 4ccc#\	4e'/
=126	=126	=126	=126
4e\	4a\ 4cc#\	4ee\ 4ccc#\	4f#'/
4e\	4a\ 4cc#\	4ee\ 4ccc#\	4g#'/
4e\	4a\ 4cc#\	4ee\ 4ccc#\	4a'/
=127	=127	=127	=127
4e\	4g#\ 4b\	4ee\ 4ddd\	4b\
4e\	4g#\ 4b\	4ee\ 4ddd\	4cc#\
4e\	4g#\ 4b\	4ee\ 4ddd\	4dd\
=128	=128	=128	=128
4e\	4g#\ 4b\	4ee\ 4ddd\	4ee\
4e\	4g#\ 4b\	4ee\ 4ddd\	4ff#\
4e\	4g#\ 4b\	4ee\ 4ddd\	4gg#\
=129	=129	=129	=129
4e\	4g#\ 4b\	4ee\ 4ddd\	4aa\
4e\	4g#\ 4b\	4ee\ 4ddd\	4bb\
4e\	4g#\ 4b\	4ee\ 4ddd\	4ccc#\
=130	=130	=130	=130
4e\	4g#\ 4b\	4ee\ 4bb\	4ddd\
4e\	(8g#\L	(8b\L	4ee\
.	8f#\	8a\	.
4e\	8g#\	8b\	4ccc#\
.	8a\J)	8cc#\J)	.
=131	=131	=131	=131
4e\	4b'\	4dd'\	4ddd\
4e\	(8g#\L	(8b\L	4ee\
.	8f#\	8a\	.
4e\	8g#\	8b\	4eee\
.	8a\J)	8cc#\J)	.
=132	=132	=132	=132
*clefF4	*	*	*
4A\	4a'\	4cc#'\	4ccc#\
(8AA/L	4r	4cc#\ 4aa\	4ee\ 4eee\
8GG#/J	.	.	.
8AA/L	4r	4cc#\ 4aa\	4ee\ 4eee\
8BB/J)	.	.	.
=133	=133	=133	=133
4C#'/	4r	4cc#\ 4aa\	4ee\ 4eee\
4r	(8D/L	4cc#\ 4aa\	4ee\ 4eee\
.	8C#/	.	.
4r	8D/	4cc#\ 4aa\	4ee\ 4eee\
.	8E/J)	.	.
=134	=134	=134	=134
2.r	4F#'/	4cc#\ 4aa\	4ee\ 4eee\
.	(8G#/L	(8g#/L	4ee\ 4eee\
.	8F#/	8f#/	.
.	8G#/	8g#/	4ee\ 4eee\
.	8A/J)	8a/J)	.
=135	=135	=135	=135
*clefC4	*	*	*
4e\	4G#'/ 4B'/	4b'\	4ee\ 4eee\
4e\	4A'/	4cc#'\	4ee\ 4eee\
4e\	4B'/	4dd'\	4ee\ 4eee\
=136	=136	=136	=136
4e\	4g#'\	4b'\	4ee\ 4eee\
4e\	4cc#'\	4a'/	4ff#\
4e\	4b'\	4dd'\	4gg#\
=137	=137	=137	=137
4e\	4f#\	4dd\	4aa\
4e\	4g#\	4dd\	4bb\
4e\	4a\	4dd\	4ccc#\
=138	=138	=138	=138
4e\	4g#\ 4b\	4dd\	4ddd\
4e\	4g#\ 4b\	4dd\ 4bb\	4ee\
4e\	4g#\ 4b\	4dd\ 4bb\	4ccc#\
=139	=139	=139	=139
4e\	4g#\ 4b\	4dd\ 4bb\	4ddd\
4e\	4g#\ 4b\	4dd\ 4bb\	4ee\
4e\	4g#\ 4b\	4dd\ 4bb\	4eee\
=140	=140	=140	=140
4e\	4g#\ 4b\	4dd\ 4bb\	4ddd'\
*clefF4	*	*	*
(8GG#/L	4g#\ 4ee\	4dd\ 4bb\	(8ddd\L
8FF#/	.	.	8eee\
8GG#/	4g#\ 4ee\	4dd\ 4bb\	8ddd\
8AA/J)	.	.	8ccc#\J)
=141	=141	=141	=141
4BB'/	4g#\ 4ee\	4dd'\	4bb'\
*clefC4	*	*	*
4e\	(8G#/L	(8B/L	(8b\L
.	8F#/	8A/	8cc#\
4e\	8G#/	8B/	8b\
.	8A/J)	8c#/J)	8a\J)
=142	=142	=142	=142
4e\	4B'/	4d'/	4g#'/
4e\	(8d\L	(8g#/L	(8b\L
.	8e\	8f#/	8a\
4e\	8d\	8g#/	8b\
.	8c#\J)	8a/J)	8cc#\J)
=143	=143	=143	=143
4e\	4B'/	4g#'/	4dd'\
*clefF4	*	*	*
(8FF#/L	(8F#/L	(8f#/L	(8ddd\L
8EE/	8E/	8e/	8ccc#\
8FF#/	8F#/	8f#/	8ddd\
8GG#/J)	8G#/J)	8g#/J)	8bb\J)
=144	=144	=144	=144
4AA'/	4A'/	4a'/	4aa'\
(8FF#/L	(8F#/L	(8f#/L	4a'/
8EE/	8E/	8e/	.
8FF#/	8F#/	8f#/	4ccc#'\
8GG#/J)	8G#/J)	8g#/J)	.
=145	=145	=145	=145
4AA'/	4A'/	4a'/	4a/
(8FF#/L	(8F#/L	(8f#/L	4eee\
8EE/	8E/	8e/	.
8FF#/	8F#/	8f#/	4a/
8GG#/J)	8G#/J)	8g#/J)	.
=146	=146	=146	=146
4AA/	4A/	4a/	4eee\
(8FF#/L	(8F#/L	(8f#/L	4a/
8EE/	8E/	8e/	.
8FF#/	8F#/	8f#/	4aaa\
8GG#/J)	8G#/J)	8g#/J)	.
=147	=147	=147	=147
4AA/	4A/	4a/	[2.eee\
(8FF#/L	(8F#/L	(8f#/L	.
8EE/	8E/	8e/	.
8FF#/	8F#/	8f#/	.
8GG#/J)	8G#/J)	8g#/J)	.
=148	=148	=148	=148
4AA/	4A/	4a/	4eee\]
(8FF#/L	(8F#/L	(8f#/L	4a'/
8EE/	8E/	8e/	.
8FF#/	8F#/	8f#/	4ddd'\
8GG#/J)	8G#/J)	8g#/J)	.
=149	=149	=149	=149
4AA/	4A/	4a/	4ccc#'\
(8FF#/L	(8F#/L	(8f#/L	4a'/
8EE/	8E/	8e/	.
8FF#/	8F#/	8f#/	4ddd'\
8GG#/J)	8G#/J)	8g#/J)	.
=150	=150	=150	=150
4AA/	4A/	4a/	4ccc#\
(8FF#/L	(8F#/L	(8f#/L	4a/
8EE/	8E/	8e/	.
8FF#/	8F#/	8f#/	4ddd\
8GG#/J)	8G#/J)	8g#/J)	.
=151	=151	=151	=151
4AA/	4A/	4a/	4ccc#\
(8FF#/L	(8F#/L	(8f#/L	4a/
8EE/	8E/	8e/	.
8FF#/	8F#/	8f#/	4bb\
8GG#/J)	8G#/J)	8g#/J)	.
=152	=152	=152	=152
4AA/	4A/	4a/	4aa\
(8FF#/L	(8F#/L	(8f#/L	4a/
8EE/	8E/	8e/	.
8FF#/	8F#/	8f#/	4ccc#\
8GG#/J)	8G#/J)	8g#/J)	.
=153	=153	=153	=153
4AA/	4A/	4a/	4a/
(8FF#/L	(8F#/L	(8f#/L	4eee\
8EE/	8E/	8e/	.
8FF#/	8F#/	8f#/	4a/
8GG#/J)	8G#/J)	8g#/J)	.
=154	=154	=154	=154
4AA/	4A/	4a/	4eee\
(8FF#/L	(8F#/L	(8f#/L	4a/
8EE/	8E/	8e/	.
8FF#/	8F#/	8f#/	4aaa\
8GG#/J)	8G#/J)	8g#/J)	.
=155	=155	=155	=155
4AA/	4A/	4a/	[2.eee\
(8FF#/L	(8F#/L	(8f#/L	.
8EE/	8E/	8e/	.
8FF#/	8F#/	8f#/	.
8GG#/J)	8G#/J)	8g#/J)	.
=156	=156	=156	=156
4AA/	4A/	4a/	4eee\]
(8FF#/L	(8F#/L	(8f#/L	4a'/
8EE/	8E/	8e/	.
8FF#/	8F#/	8f#/	4ddd'\
8GG#/J)	8G#/J)	8g#/J)	.
=157	=157	=157	=157
4AA/	4A/	4a/	4ccc#'\
(8FF#/L	(8F#/L	(8f#/L	4a'/
8EE/	8E/	8e/	.
8FF#/	8F#/	8f#/	4ddd'\
8GG#/J)	8G#/J)	8g#/J)	.
=158	=158	=158	=158
4AA/	4A/	4a/	4ccc#\
(8FF#/L	(8F#/L	(8f#/L	4a/
8EE/	8E/	8e/	.
8FF#/	8F#/	8f#/	4ddd\
8GG#/J)	8G#/J)	8g#/J)	.
=159	=159	=159	=159
4AA/	4A/	4a/	4ccc#\
(8FF#/L	(8F#/L	(8f#/L	4a/
8EE/	8E/	8e/	.
8FF#/	8F#/	8f#/	4ddd\
8GG#/J)	8G#/J)	8g#/J)	.
=160	=160	=160	=160
4AA/	4A/	4a/	4ddd\
(8FF#/L	(8F#/L	(8f#/L	(4b\
8EE/	8E/	8e/	.
8FF#/	8F#/	8f#/	8.ccc#\)
8GG#/J)	8G#/J)	8g#/J)	.
.	.	.	(16ccc#\
=161	=161	=161	=161
4AA/	4A/	4a/	4ddd'\)
(8FF#/L	(8F#/L	(8f#/L	4b'\
8EE/	8E/	8e/	.
8FF#/	8F#/	8f#/	4eee'\
8GG#/J)	8G#/J)	8g#/J)	.
=162	=162	=162	=162
4AA/	4A/	4a/	4ccc#'\
(8FF#/L	(8F#/L	(8f#/L	4a'/
8EE/	8E/	8e/	.
8FF#/	8F#/	8f#/	4ddd\
8GG#/J)	8G#/J)	8g#/J)	.
=163	=163	=163	=163
4AA/	4A/	4a/	4ccc#\
(8FF#/L	(8F#/L	(8f#/L	4eee\
8EE/	8E/	8e/	.
8FF#/	8F#/	8f#/	4aaa\
8GG#/J)	8G#/J)	8g#/J)	.
=164	=164	=164	=164
4AA/	4A/	4a/	4ddd\
(8FF#/L	(8F#/L	(8f#/L	(4b\
8EE/	8E/	8e/	.
8FF#/	8F#/	8f#/	8.ccc#\)
8GG#/J)	8G#/J)	8g#/J)	.
.	.	.	(16ccc#\
=165	=165	=165	=165
4AA/	4A/	4a/	4ddd'\)
(8FF#/L	(8F#/L	(8f#/L	4b'\
8EE/	8E/	8e/	.
8FF#/	8F#/	8f#/	4eee'\
8GG#/J)	8G#/J)	8g#/J)	.
=166	=166	=166	=166
4AA/	4A/	4a/	4ccc#\
(8FF#/L	(8F#/L	(8f#/L	4a/
8EE/	8E/	8e/	.
8FF#/	8F#/	8f#/	8.eee\
8GG#/J)	8G#/J)	8g#/J)	.
.	.	.	(16eee\
=167	=167	=167	=167
4AA/	4A/	4a/	(4aaa\)
(8FF#/L	(8F#/L	(8f#/L	4.a/
8EE/	8E/	8e/	.
8FF#/	8F#/	8f#/	.
8GG#/J)	8G#/J)	8g#/J)	8eee\)
=168	=168	=168	=168
4AA/	4A/	4a/	4ddd\
(8FF#/L	(8F#/L	(8f#/L	(4b\
8EE/	8E/	8e/	.
8FF#/	8F#/	8f#/	8..ccc#\)
8GG#/J)	8G#/J)	8g#/J)	.
.	.	.	(32ccc#\
=169	=169	=169	=169
4AA/	4A/	4a/	4ddd'\)
(8FF#/L	(8F#/L	(8f#/L	4b'\
8EE/	8E/	8e/	.
8FF#/	8F#/	8f#/	4eee'\
8GG#/J)	8G#/J)	8g#/J)	.
=170	=170	=170	=170
4AA/	4A/	4a/	4ccc#\
(8FF#/L	(8F#/L	(8f#/L	4a/
8EE/	8E/	8e/	.
8FF#/	8F#/	8f#/	4ddd\
8GG#/J)	8G#/J)	8g#/J)	.
=171	=171	=171	=171
4AA/	4A/	4a/	4ccc#\
(8FF#/L	(8F#/L	(8f#/L	4eee\
8EE/	8E/	8e/	.
8FF#/	8F#/	8f#/	4aaa\
8GG#/J)	8G#/J)	8g#/J)	.
=172	=172	=172	=172
4AA/	4A/	4a/	4ddd\
(8FF#/L	(8F#/L	(8f#/L	(4b\
8EE/	8E/	8e/	.
8FF#/	8F#/	8f#/	8..ccc#\)
8GG#/J)	8G#/J)	8g#/J)	.
.	.	.	(32ccc#\
=173	=173	=173	=173
4AA/	4A/	4a/	4ddd'\)
(8FF#/L	(8F#/L	(8f#/L	4b'\
8EE/	8E/	8e/	.
8FF#/	8F#/	8f#/	4eee'\
8GG#/J)	8G#/J)	8g#/J)	.
=174	=174	=174	=174
4AA/	4A/	4a/	4ccc#\
(8FF#/L	(8F#/L	(8f#/L	4a/
8EE/	8E/	8e/	.
8FF#/	8F#/	8f#/	8..eee\
8GG#/J)	8G#/J)	8g#/J)	.
.	.	.	(32eee\
=175	=175	=175	=175
4AA/	4A/	4a/	(4aaa\)
(8FF#/L	(8F#/L	(8f#/L	4.a/
8EE/	8E/	8e/	.
8FF#/	8F#/	8f#/	.
8GG#/J)	8G#/J)	8g#/J)	8eee\)
=176	=176	=176	=176
4AA/	4A/	4a/	4ddd'\
(8FF#/L	(8F#/L	(8f#/L	4b'\
8EE/	8E/	8e/	.
8FF#/	8F#/	8f#/	4eee'\
8GG#/J)	8G#/J)	8g#/J)	.
=177	=177	=177	=177
4AA/	4A/	4a/	4ccc#\
(8FF#/L	(8F#/L	(8f#/L	4a/
8EE/	8E/	8e/	.
8FF#/	8F#/	8f#/	4eee\
8GG#/J)	8G#/J)	8g#/J)	.
=178	=178	=178	=178
4AA/	4A/	4a/	4ddd\
(8FF#/L	(8F#/L	(8f#/L	4b\
8EE/	8E/	8e/	.
8FF#/	8F#/	8f#/	8..eee\
8GG#/J)	8G#/J)	8g#/J)	.
.	.	.	(32eee\
=179	=179	=179	=179
4AA/	4A/	4a/	(4aaa\)
(8FF#/L	(8F#/L	(8f#/L	4.a/
8EE/	8E/	8e/	.
8FF#/	8F#/	8f#/	.
8GG#/J)	8G#/J)	8g#/J)	8eee\)
=180	=180	=180	=180
4AA/	4A/	4a/	4ddd'\
(8FF#/L	(8F#/L	(8f#/L	4b'\
8EE/	8E/	8e/	.
8FF#/	8F#/	8f#/	4eee'\
8GG#/J)	8G#/J)	8g#/J)	.
=181	=181	=181	=181
4AA/	4A/	4a/	4ccc#\
(8FF#/L	(8F#/L	(8f#/L	4a/
8EE/	8E/	8e/	.
8FF#/	8F#/	8f#/	4eee\
8GG#/J)	8G#/J)	8g#/J)	.
=182	=182	=182	=182
4AA/	4A/	4a/	4ccc#\
(8FF#/L	(8F#/L	(8f#/L	4a/
8EE/	8E/	8e/	.
8FF#/	8F#/	8f#/	8..eee\
8GG#/J)	8G#/J)	8g#/J)	.
.	.	.	(32eee\
=183	=183	=183	=183
4AA/	4A/	4a/	(4aaa\)
(8FF#/L	(8F#/L	(8f#/L	2a/)
8EE/	8E/	8e/	.
8FF#/	8F#/	8f#/	.
8GG#/J)	8G#/J)	8g#/J)	.
=184	=184	=184	=184
4AA/	4A/	4a/	4cc#\
(8FF#/L	(8F#/L	(8f#/L	4A/
8EE/	8E/	8e/	.
8FF#/	8F#/	8f#/	8..ee\
8GG#/J)	8G#/J)	8g#/J)	.
.	.	.	(32ee\
=185	=185	=185	=185
4AA/	4A/	4a/	8aa\L)
.	.	.	[8a\J
(8FF#/L	(8F#/L	(8f#/L	2A/ 2a/]
8EE/	8E/	8e/	.
8FF#/	8F#/	8f#/	.
8GG#/J)	8G#/J)	8g#/J)	.
=186	=186	=186	=186
4AA/	4A/	4a/	4ccc#\
(8FF#/L	(8F#/L	(8f#/L	4a/
8EE/	8E/	8e/	.
8FF#/	8F#/	8f#/	8..eee\L
8GG#/J)	8G#/J)	8g#/J)	.
.	.	.	(32eee\Jkk
=187	=187	=187	=187
4AA/	4A/	4a/	(4aaa\)
(8FF#/L	(8F#/L	(8f#/L	[4a/)
8EE/	8E/	8e/	.
8FF#/	8F#/	8f#/	8..a/L]
8GG#/J)	8G#/J)	8g#/J)	.
.	.	.	(32e/Jkk
=188	=188	=188	=188
4AA/	4A/	4a/	(4a/)
(8FF#/L	(8F#/L	(8f#/L	[4A/)
8EE/	8E/	8e/	.
8FF#/	8F#/	8f#/	8..A/L]
8GG#/J)	8G#/J)	8g#/J)	.
.	.	.	(32e/Jkk
=189	=189	=189	=189
4AA/	4A/	4a/	(4a/)
(8FF#/L	(8F#/L	(8f#/L	[2A/)
8EE/	8E/	8e/	.
8FF#/	8F#/	8f#/	.
8GG#/J)	8G#/J)	8g#/J)	.
=190	=190	=190	=190
4AA/	4A/	4a/	4A/]
(8FF#/L	(8F#/L	(8f#/L	(8f#/L
8EE/	8E/	8e/	8e/
8FF#/	8F#/	8f#/	8f#/
8GG#/J	8G#/J	8g#/J	8g#/J
=191	=191	=191	=191
4AA'/)	4A'/)	4a'/)	4a'/)
(8FF#/L	(8F#/L	(8f#/L	(8f#/L
8EE/	8E/	8e/	8e/
8FF#/	8F#/	8f#/	8f#/
8GGn/J	8Gn/J	8gn/J	8gn/J
=192	=192	=192	=192
4AA'/)	4A'/)	4a'/)	4a'/)
(8FF#/L	(8F#/L	(8f#/L	(8f#/L
8EE/	8E/	8e/	8e/
8FFn/	8Fn/	8fn/	8fn/
8GGn/J	8Gn/J	8gn/J	8gn/J
=193	=193	=193	=193
*k[b-]	*k[b-]	*k[b-]	*k[b-]
4AA'/)	4A'/)	4a'/)	4a'/)
(8FF/L	(8F/L	(8f/L	(8f/L
8EE/	8E/	8e/	8e/
8FF/	8F/	8f/	8f/
[8GG/J)	[8G/J)	[8g/J)	[8g/J)
=194	=194	=194	=194
(4GG/]	(4G/]	(4g/]	(4g/]
[2AA/	[2A/	[2a/	[2a/
=195	=195	=195	=195
4AA/]	4A/]	4a/]	4a/]
[2GG/	[2G/	[2g/	[2g/
=196	=196	=196	=196
4GG/]	4G/]	4g/]	4g/]
[2FF/	[2F/	[2f/	[2f/
=197	=197	=197	=197
4FF/]	4F/]	4f/]	4f/]
[2GG/	[2G/	[2g/	[2g/
=198	=198	=198	=198
(4GG/])	4G/])	4g/])	4g/])
[2G\)	[2G/	[2g/	&([2gg\&)
=199	=199	=199	=199
(4G\]	(4G/]	(4g/]	(4gg\]
[2g\)	[2g\)	[2gg\)	[2ggg\)
=200	=200	=200	=200
(4g\]	(4g\]	(4gg\]	(4ggg\]
[2G\)	[2G/)	[2g/)	[2gg\)
=201	=201	=201	=201
(4G\]	4G/]	(4g/]	(4gg\]
2GG/)	2G/	4G/	[2g/)
.	.	[4c/)	.
=202	=202	=202	=202
4FF'/	2.F/	2c/]	4g/]
4r	.	.	[2a/
4AA'/	.	[4c/	.
=203	=203	=203	=203
4BB-'/	2.E/	2c/]	4a/]
4r	.	.	[2g/
4C'/	.	[4c/	.
=204	=204	=204	=204
4D\	2.F/	2c/]	4g/]
4r	.	.	[2f/
4C/	.	[4c/	.
=205	=205	=205	=205
4BB-/	2.E/	2c/]	4f/]
4r	.	.	[2g/
4GG/	.	[4c/	.
=206	=206	=206	=206
4FF/	2.F/	2c/]	4g/]
4r	.	.	[2a/
4AA/	.	[4c/	.
=207	=207	=207	=207
4BB-/	2.E/	2c/]	4a/]
4r	.	.	[2g/
4C/	.	4c/	.
=208	=208	=208	=208
4D'\	4F'/	4A'/	4g'/]
4DD'/	4F'/	4A'/	4f'/
4CC'/	4E'/	4e'/	4g'/
=209	=209	=209	=209
4FF'/	4F'/	4A'/	4f'/
4d'\	4a'\	4ff'\	4r
4c'\	4ee'\	4gg'\	[4ccc\
=210	=210	=210	=210
4f\	4a'\	4ff'\	2ccc\]
4r	4F'/	[2aa\	.
4A\	[4f\	.	[4ccc\
=211	=211	=211	=211
4B-\	4f\]	4aa\]	2ccc\]
4r	4e\	[2gg\	.
4c\	(4b-\	.	[4ccc\
=212	=212	=212	=212
4d\	4a\)	4gg\]	2ccc\]
4r	4A/	[2ff\	.
4c\	4a\	.	[4ccc\
=213	=213	=213	=213
4B-\	4d\	4ff\]	2ccc\]
4r	4b-\	[2gg\	.
4G\	4e\	.	[4ccc\
=214	=214	=214	=214
4F\	4a\	4gg\]	2ccc\]
4r	4c\	[2aa\	.
4A\	[4f\	.	[4ccc\
=215	=215	=215	=215
4B-\	4f\]	4aa\]	2ccc\]
4r	4E/	[2gg\	.
4c\	4e\	.	[4ccc\
=216	=216	=216	=216
4d\	4A/	4gg'\]	4ccc'\]
4D\	4a\	4ff'\	4ddd'\
4C/	4c\	4gg'\	4eee'\
=217	=217	=217	=217
4F\	4F/	4ff'\	4fff'\
2EE-^/	2E-^/	2e-^/	2e-^/
=218!|:	=218!|:	=218!|:	=218!|:
*>D	*>D	*>D	*>D
4r	4r	2.r	2.r
2EE-/	2E-/	.	.
=219	=219	=219	=219
2EE-/	2E-/	2.r	2.r
4EE-/	4E-/	.	.
=220	=220	=220	=220
4r	4r	4r	4r
2EE-/	2E-/	2e-/	2e-/
=221	=221	=221	=221
2EE-/	2E-/	2e-/	2e-/
4EE-/	4E-/	4e-/	4e-/
=222	=222	=222	=222
4r	4r	4r	4r
2EE-/	2E-/	2e-/	2e-/
=223	=223	=223	=223
4r	4r	4r	4r
2EE-/	2E-/	2e-/	2e-/
=224	=224	=224	=224
4r	4r	4r	4r
2EEn/	2En/	2en/	2en/
=225	=225	=225	=225
4r	4r	4r	4r
[2CC/	2E/	2e/	2e/
=226	=226	=226	=226
2CC/]	4F/	4r	4r
.	([4C/ 4C/	4r	[2a/
[4CC/	4C/_ 4A/	([4f/	.
=227	=227	=227	=227
2CC/]	4C/]) 4Bn/	2f/]	4a/]
.	([4C/ 4C/	.	[2g/
[4CC/	4C/_ 4c/	4e/	.
=228	=228	=228	=228
2CC/]	4C/]) 4d/	2A/	4g/]
.	([4C/ 4C/	.	[2f/
[4CC/	4C/_ 4c/	4A-/	.
=229	=229	=229	=229
2CC/]	4C/]) 4Bn/	2d/	4f/]
.	(4C/	.	[2g/
[4CC/	4D-/ 4B-/	[4e/)	.
=230	=230	=230	=230
2CC/]	4C/) 4A/	4e/]	4g/]
.	([4C/ 4C/	(4A/	[2a/
[4CC/	4C/_ 4A/	[4f/)	.
=231	=231	=231	=231
2CC/]	4C/]) 4Bn/	4f/]	4a/]
.	([4C/ 4C/	(4f/	[2g/
[4CC/	4C/_ 4c/	4e/)	.
=232	=232	=232	=232
2CC/]	4C/]) 4Bn/	([4A-/	4g/]
.	([4C/ 4C/	4A-/]) 4d/	4f'/
[4CC/	4C/_ 4B-/	4G/ 4e/	4g'/
=233	=233	=233	=233
4CC/]	4C/]) 4A/	4A/	4f'/
4FF'/	4F'/	4r	4r
[4GG/	[4G/	4r	4r
=234	=234	=234	=234
4GG/]	4G/]	4f'/	4ff'\
[2AA/	[2A/	4r	4r
.	.	4a'/	4aa'\
=235	=235	=235	=235
4AA/]	4A/]	4b-'\	4bb-'\
[2GG/	[2G/	4r	4r
.	.	4cc\	4ccc\
=236	=236	=236	=236
4GG/]	4G/]	4dd\	4ddd\
[2FF/	[2F/	4r	4r
.	.	4cc\	4ccc\
=237	=237	=237	=237
4FF/]	4F/]	4b-\	4bb-\
[2GG/	[2G/	4r	4r
.	.	4g/	4gg\
=238	=238	=238	=238
4GG/]	4G/]	4f/	4ff\
[2AA/	[2A/	4r	4r
.	.	4a/	4aa\
=239	=239	=239	=239
4AA/]	4A/]	4b-\	4bb-\
[2GG/	[2G/	4r	4r
.	.	4cc\	4ccc\
=240	=240	=240	=240
4GG/]	4G/]	4dd\	4ddd\
4FF'/	4F'/	4r	4r
4GG'/	4G'/	4e/ 4cc/	4ccc\
=241	=241	=241	=241
4FF'/	4F'/	4a'\ 4cc'\	4ccc'\
4r	4A'/	4cc'\	4ccc'\
4r	4F'/	4a'/	4eee-'\
=242	=242	=242	=242
4r	4B-'/	4f'/	4ddd'\
4FF'/	4r	4r	4r
4GG'/	4r	4r	4r
=243	=243	=243	=243
4FF'/	4r	4r	4r
4r	4B-'/	4f'/ 4dd'/	4eeen'\
4r	4B-'/	4f'/ 4dd'/	4fff'\
=244	=244	=244	=244
4r	4f\	4a/	4ccc'\
4FF'/	4f\	4ff\	4r
4EE-'/	4g\	4gg\	4r
=245	=245	=245	=245
4DD'/	4f#\	4ff#\	4r
4EEn'/	4g\	4bb-\	4ddd\
4FF#'/	4a\	4aa\	4ccc\
=246	=246	=246	=246
4GG/	4d\	4aa'\	4ccc'\
4GG/	4e\	4gg'\	4bb-'\
4AA/	4c\	4ff'\	4aa'\
=247	=247	=247	=247
4BB-/	(4d\	(4ff\	(4aa\
4BB-/	4G/)	4dd\)	4bb-\)
4C/	4c'\	4b-'\ 4ee'\	4gg'\
=248	=248	=248	=248
4FF/	4c\	4a'/	4aa'\
4r	4r	4f'/	4ff'\
4r	4r	4g'/	4gg'\
=249	=249	=249	=249
4r	4r	4f/	4ff\
4c'\	4A'/	4r	4r
4e-'\	4c'\	4r	4r
=250	=250	=250	=250
4d\	4B-/	4r	4r
4r	4r	4f/	4ff\
4r	4r	4g/	4gg\
=251	=251	=251	=251
4r	4r	4f/	4ff\
4e\	4B-/	4r	4r
4f\	4B-/	4r	4r
=252	=252	=252	=252
4c\	4A/	4r	4r
4r	4r	4f/	4ff\
4r	4r	4g/	4gg\
=253	=253	=253	=253
4r	4r	4f/	4ff\
4e-\	4c\	4f#/	4ff#\
4d\	4B-/	4g/	4gg\
=254	=254	=254	=254
4d'\	4B-/	4g/	4gg\
4c'\	4A/	4g/	4gg\
4B-'\	4G/	4cc\	4ccc\
=255	=255	=255	=255
(4A\	(4F/	4cc\	4ccc\
4B-\)	4G/)	4cc\	4ccc\
4G'\	4E/	4cc\	4ccc\
=256	=256	=256	=256
4A'\	4F'/	4cc'\	4ccc'\
4G'\	4e'\	4c'/	4bb-'\
4A'\	4f'\	4cc'\	4aa'\
=257	=257	=257	=257
(4B-\	(4d\	(4cc\	(4aa\
4BB-/)	4D/)	4g\) 4dd\	4bb-\)
4C'/	4E'/	4e'/	4gg'\
=258	=258	=258	=258
4C'/	(4E/	(4b-\	(4gg\
4CC'/	4F/)	4a/)	4aa\)
4CC'/	4A'/	4f'/ 4a'/	4ff'\
=259	=259	=259	=259
4CC'/	(4B-/	(4g/	(4ee\
4CC'/	4A/)	4f/)	4ff\)
4CC'/	4G'/	4e'/	4gg'\
=260	=260	=260	=260
(4CC/	(4G/	4b-'\	(4ee\
4DD/)	4F/)	4B-'/	4ff\)
4EE'/	4E'/	4b-'\	4gg'\
=261	=261	=261	=261
4FF'/	4A'/	4a'/	4cc\
4GG'/	4B-'/	4g'/	4cc\
4AA'/	4c'\	4f'/	4cc\
=262	=262	=262	=262
(4CC/	(4G/	4B-/	(4ee\
4DD/)	4F/)	4b-\	4ff\)
4EE'/	4E'/	4b-\	4gg'\
=263	=263	=263	=263
4FF'/	4A'/	4a'/	4cc\
4GG'/	4B-'/	4g'/	4cc\
4AA'/	4c'\	4f'/	4cc\
=264	=264	=264	=264
(4CC/	(4G/	4B-/	(4ee\
4DD/)	4F/)	4b-\	4ff\)
4EE'/	4E'/	4b-\	4gg'\
=265	=265	=265	=265
4FF'/	4A'/	4a'/	4cc\
4GG'/	4B-'/	4g'/	4cc\
4AA'/	4c'\	4f'/	4cc\
=266	=266	=266	=266
(4CC/	(4G/	4B-/	(4ee\
4DD/)	4F/)	4b-\	4ff\)
4EE'/	4E'/	4b-\	4gg'\
=267	=267	=267	=267
*>D1	*>D1	*>D1	*>D1
4FF/	4F/	4a/	4cc\
2EE-^/	2E-^/	2e-^/	2e-^/
=268:|!	=268:|!	=268:|!	=268:|!
*>D2	*>D2	*>D2	*>D2
4FF/	4F/	4a/	4cc\
2FF^/ 2AA^/	2C^/ 2c^/	2A^/	4r
.	.	.	4r
=269	=269	=269	=269
*>E	*>E	*>E	*>E
4r	4r	4r	2.r
2FF/ 2AA/	2C/ 2c/	2A/	.
=270	=270	=270	=270
2FF/ 2AA/	2C/ 2c/	2A/	2.r
4FF/ 4AA/	4C/ 4c/	4A/	.
=271	=271	=271	=271
4r	4r	4r	4r
*clefC4	*	*	*
2f\	2a\	2cc\ 2aa\	2ccc\
=272	=272	=272	=272
2f\	2a\	2cc\ 2aa\	2ccc\
4f\	4a\	4cc\ 4aa\	4ccc\
=273	=273	=273	=273
4r	4r	4r	4r
2f\	2a\	2cc\ 2aa\	2ccc\
=274	=274	=274	=274
4f\	4f\ 4a\	4cc\ 4aa\	4ccc\
4r;	4r;	4r;	4r;
4r	4r	4r	4r
==	==	==	==
*-	*-	*-	*-
!!!ENC: Craig Stuart Sapp
!!!END: 2004/09/08/
